X:227
T:The Flower of Scotland
O:scotland
R:Song
C:Traditional
M:3/4
L:1/4
K:F
"(Intro)"A|"Bb"B>A G|"F"A2 G|(F3|F) F|"Eb" _E2 G|"F"F>A c|"Bb"d c "F"B|A
2|
"(Start)"A|"C"A2"E" G|F3|(C3|C2) C| F2 A| "C7"(G3|G2) G| F2 G|
(A3|A3|A2)A|BAB|c3|(F3|F2) A|G2 G|
GFG|A2 B|A2 G|F3| (C3|C2) A| BAB|c3|
(F3|F) A|BAG|A2G|(F3|F2) F|_E2 G| (F3|F3|F2) :||
